Komodo/actions/scalable/edit-redo.svg

<?xml version="1.0" encoding="UTF-8" standalone="no"?>
<!-- Created with Inkscape (http://www.inkscape.org/) -->

<svg
   xmlns:dc="http://purl.org/dc/elements/1.1/"
   xmlns:cc="http://creativecommons.org/ns#"
   xmlns:rdf="http://www.w3.org/1999/02/22-rdf-syntax-ns#"
   xmlns:svg="http://www.w3.org/2000/svg"
   xmlns="http://www.w3.org/2000/svg"
   xmlns:xlink="http://www.w3.org/1999/xlink"
   xmlns:sodipodi="http://sodipodi.sourceforge.net/DTD/sodipodi-0.dtd"
   xmlns:inkscape="http://www.inkscape.org/namespaces/inkscape"
   width="96"
   height="96"
   id="svg11037"
   version="1.1"
   inkscape:version="0.48.3.1 r9886"
   sodipodi:docname="edit-paste.svg">
  <defs
     id="defs11039">
    <linearGradient
       y2="1046.1001"
       x2="47.999954"
       y1="962.62189"
       x1="47.999954"
       gradientTransform="matrix(1.15,0,0,1.15,-7.1999462,-150.65291)"
       gradientUnits="userSpaceOnUse"
       id="linearGradient3886"
       xlink:href="#linearGradient3795"
       inkscape:collect="always" />
    <linearGradient
       id="linearGradient3795">
      <stop
         style="stop-color:#13a6fd;stop-opacity:1;"
         offset="0"
         id="stop3797" />
      <stop
         style="stop-color:#2975b6;stop-opacity:1;"
         offset="1"
         id="stop3799" />
    </linearGradient>
    <clipPath
       clipPathUnits="userSpaceOnUse"
       id="clipPath3009">
      <path
         id="path3011"
         d="m -2,956.36218 -96,0 0,33.5624 96,25.68742 0,-59.24982 z"
         style="opacity:0.15;fill:#ffffff;fill-opacity:1;stroke:none"
         inkscape:connector-curvature="0" />
    </clipPath>
    <linearGradient
       x1="11.998966"
       y1="1.8417114"
       x2="11.998966"
       y2="20.237488"
       id="linearGradient3867"
       xlink:href="#linearGradient3637"
       gradientUnits="userSpaceOnUse"
       gradientTransform="matrix(2.7741687,0,0,3.2616291,2.819831,13.992926)" />
    <linearGradient
       id="linearGradient3637">
      <stop
         id="stop3639"
         style="stop-color:#f0f0f0;stop-opacity:1"
         offset="0" />
      <stop
         id="stop3641"
         style="stop-color:#aaaaaa;stop-opacity:1"
         offset="1" />
    </linearGradient>
    <linearGradient
       x1="11.998966"
       y1="1.8417114"
       x2="11.998966"
       y2="20.237488"
       id="linearGradient3105"
       xlink:href="#linearGradient3637-3"
       gradientUnits="userSpaceOnUse"
       gradientTransform="matrix(2.7741687,0,0,3.2616291,2.819831,13.992926)" />
    <linearGradient
       id="linearGradient3637-3">
      <stop
         id="stop3639-1"
         style="stop-color:#f0f0f0;stop-opacity:1"
         offset="0" />
      <stop
         id="stop3641-4"
         style="stop-color:#aaaaaa;stop-opacity:1"
         offset="1" />
    </linearGradient>
    <linearGradient
       x1="3"
       y1="11"
       x2="19"
       y2="11"
       id="linearGradient3139"
       xlink:href="#linearGradient3637-6"
       gradientUnits="userSpaceOnUse"
       gradientTransform="matrix(0,3.125,-3.125,0,84.375,11.625)" />
    <linearGradient
       id="linearGradient3637-6">
      <stop
         id="stop3639-5"
         style="stop-color:#f0f0f0;stop-opacity:1"
         offset="0" />
      <stop
         id="stop3641-9"
         style="stop-color:#aaaaaa;stop-opacity:1"
         offset="1" />
    </linearGradient>
    <linearGradient
       x1="11.998966"
       y1="5.5317268"
       x2="11.998966"
       y2="20.282997"
       id="linearGradient3877"
       xlink:href="#linearGradient3637-2"
       gradientUnits="userSpaceOnUse"
       gradientTransform="matrix(2.7658632,0,0,3.2539569,10,6)" />
    <linearGradient
       id="linearGradient3637-2">
      <stop
         id="stop3639-4"
         style="stop-color:#f0f0f0;stop-opacity:1"
         offset="0" />
      <stop
         id="stop3641-3"
         style="stop-color:#aaaaaa;stop-opacity:1"
         offset="1" />
    </linearGradient>
    <linearGradient
       x1="652.021"
       y1="347.86285"
       x2="627.67029"
       y2="349.2926"
       id="linearGradient7313"
       xlink:href="#linearGradient3637-5"
       gradientUnits="userSpaceOnUse"
       gradientTransform="matrix(0.11586665,-1.9518366,1.9733605,0.1145396,-711.10468,1256.8145)" />
    <linearGradient
       id="linearGradient3637-5">
      <stop
         id="stop3639-9"
         style="stop-color:#f0f0f0;stop-opacity:1"
         offset="0" />
      <stop
         id="stop3641-8"
         style="stop-color:#aaaaaa;stop-opacity:1"
         offset="1" />
    </linearGradient>
    <linearGradient
       x1="647.27832"
       y1="349.10172"
       x2="639.46515"
       y2="357.89178"
       id="linearGradient3811"
       xlink:href="#linearGradient3183-0"
       gradientUnits="userSpaceOnUse"
       gradientTransform="matrix(-1.3783144,1.2009005,-1.2251361,-1.3503034,1354.9038,-244.77384)" />
    <linearGradient
       id="linearGradient3183-0">
      <stop
         id="stop3185-9"
         style="stop-color:#c80000;stop-opacity:1"
         offset="0" />
      <stop
         id="stop3187-6"
         style="stop-color:#f3604d;stop-opacity:1"
         offset="1" />
    </linearGradient>
    <linearGradient
       x1="11.162445"
       y1="5.6551228"
       x2="11.162445"
       y2="18.097509"
       id="linearGradient3018"
       xlink:href="#linearGradient3637-8"
       gradientUnits="userSpaceOnUse"
       gradientTransform="matrix(3.6987654,0,0,2.8914301,10.901546,15.338296)" />
    <linearGradient
       id="linearGradient3637-8">
      <stop
         id="stop3639-97"
         style="stop-color:#f0f0f0;stop-opacity:1"
         offset="0" />
      <stop
         id="stop3641-6"
         style="stop-color:#aaaaaa;stop-opacity:1"
         offset="1" />
    </linearGradient>
    <linearGradient
       x1="8.7404661"
       y1="4.5355735"
       x2="8.7404661"
       y2="20.492353"
       id="linearGradient3017"
       xlink:href="#linearGradient3637-65"
       gradientUnits="userSpaceOnUse"
       gradientTransform="matrix(3.0237157,0,0,2.3517789,18.666667,20)" />
    <linearGradient
       id="linearGradient3637-65">
      <stop
         id="stop3639-3"
         style="stop-color:#f0f0f0;stop-opacity:1"
         offset="0" />
      <stop
         id="stop3641-0"
         style="stop-color:#aaaaaa;stop-opacity:1"
         offset="1" />
    </linearGradient>
    <linearGradient
       x1="48"
       y1="74"
       x2="48"
       y2="21.913534"
       id="linearGradient3195"
       xlink:href="#linearGradient4081"
       gradientUnits="userSpaceOnUse"
       gradientTransform="translate(80,0)" />
    <linearGradient
       id="linearGradient4081">
      <stop
         id="stop4083"
         style="stop-color:#aaaaaa;stop-opacity:1"
         offset="0" />
      <stop
         id="stop4085"
         style="stop-color:#f0f0f0;stop-opacity:1"
         offset="1" />
    </linearGradient>
    <linearGradient
       x1="48"
       y1="74"
       x2="48"
       y2="21.913534"
       id="linearGradient3195-7"
       xlink:href="#linearGradient4081-3"
       gradientUnits="userSpaceOnUse" />
    <linearGradient
       id="linearGradient4081-3">
      <stop
         id="stop4083-6"
         style="stop-color:#aaaaaa;stop-opacity:1"
         offset="0" />
      <stop
         id="stop4085-8"
         style="stop-color:#f0f0f0;stop-opacity:1"
         offset="1" />
    </linearGradient>
    <linearGradient
       x1="45"
       y1="24"
       x2="45"
       y2="76"
       id="linearGradient3879"
       xlink:href="#linearGradient3637-0"
       gradientUnits="userSpaceOnUse" />
    <linearGradient
       id="linearGradient3637-0">
      <stop
         id="stop3639-56"
         style="stop-color:#f0f0f0;stop-opacity:1"
         offset="0" />
      <stop
         id="stop3641-32"
         style="stop-color:#aaaaaa;stop-opacity:1"
         offset="1" />
    </linearGradient>
    <linearGradient
       x1="48"
       y1="74"
       x2="48"
       y2="23.990002"
       id="linearGradient3161"
       xlink:href="#linearGradient4081-0"
       gradientUnits="userSpaceOnUse" />
    <linearGradient
       id="linearGradient4081-0">
      <stop
         id="stop4083-7"
         style="stop-color:#aaaaaa;stop-opacity:1"
         offset="0" />
      <stop
         id="stop4085-7"
         style="stop-color:#f0f0f0;stop-opacity:1"
         offset="1" />
    </linearGradient>
    <linearGradient
       x1="48"
       y1="74"
       x2="48"
       y2="21.913534"
       id="linearGradient3762"
       xlink:href="#linearGradient4081-1"
       gradientUnits="userSpaceOnUse" />
    <linearGradient
       id="linearGradient4081-1">
      <stop
         id="stop4083-2"
         style="stop-color:#aaaaaa;stop-opacity:1"
         offset="0" />
      <stop
         id="stop4085-4"
         style="stop-color:#f0f0f0;stop-opacity:1"
         offset="1" />
    </linearGradient>
    <linearGradient
       x1="18.44883"
       y1="17.478098"
       x2="18.44883"
       y2="0.92195439"
       id="linearGradient2869"
       xlink:href="#linearGradient4081-8"
       gradientUnits="userSpaceOnUse"
       gradientTransform="matrix(2.4659278,0,0,2.8992258,10.506518,21.327046)" />
    <linearGradient
       id="linearGradient4081-8">
      <stop
         id="stop4083-3"
         style="stop-color:#aaaaaa;stop-opacity:1"
         offset="0" />
      <stop
         id="stop4085-6"
         style="stop-color:#f0f0f0;stop-opacity:1"
         offset="1" />
    </linearGradient>
    <linearGradient
       x1="18.44883"
       y1="17.478098"
       x2="18.44883"
       y2="0.92195439"
       id="linearGradient3181"
       xlink:href="#linearGradient4081-4"
       gradientUnits="userSpaceOnUse"
       gradientTransform="matrix(2.4659278,0,0,2.8992258,10.506518,21.327046)" />
    <linearGradient
       id="linearGradient4081-4">
      <stop
         id="stop4083-61"
         style="stop-color:#aaaaaa;stop-opacity:1"
         offset="0" />
      <stop
         id="stop4085-3"
         style="stop-color:#f0f0f0;stop-opacity:1"
         offset="1" />
    </linearGradient>
    <linearGradient
       x1="49"
       y1="70"
       x2="49"
       y2="23.729059"
       id="linearGradient3818"
       xlink:href="#linearGradient4081-6"
       gradientUnits="userSpaceOnUse" />
    <linearGradient
       id="linearGradient4081-6">
      <stop
         id="stop4083-24"
         style="stop-color:#aaaaaa;stop-opacity:1"
         offset="0" />
      <stop
         id="stop4085-38"
         style="stop-color:#f0f0f0;stop-opacity:1"
         offset="1" />
    </linearGradient>
    <linearGradient
       x1="45"
       y1="20"
       x2="45"
       y2="68"
       id="linearGradient3131"
       xlink:href="#linearGradient3637-31"
       gradientUnits="userSpaceOnUse"
       gradientTransform="translate(-4,2)" />
    <linearGradient
       id="linearGradient3637-31">
      <stop
         id="stop3639-33"
         style="stop-color:#f0f0f0;stop-opacity:1"
         offset="0" />
      <stop
         id="stop3641-06"
         style="stop-color:#aaaaaa;stop-opacity:1"
         offset="1" />
    </linearGradient>
    <linearGradient
       x1="19.530235"
       y1="20.237455"
       x2="19.530235"
       y2="1.8417403"
       id="linearGradient2862"
       xlink:href="#linearGradient4081-18"
       gradientUnits="userSpaceOnUse"
       gradientTransform="matrix(2.219335,0,0,2.6093033,4.655865,19.194341)" />
    <linearGradient
       id="linearGradient4081-18">
      <stop
         id="stop4083-66"
         style="stop-color:#aaaaaa;stop-opacity:1"
         offset="0" />
      <stop
         id="stop4085-41"
         style="stop-color:#f0f0f0;stop-opacity:1"
         offset="1" />
    </linearGradient>
    <linearGradient
       x1="38"
       y1="24"
       x2="38"
       y2="72"
       id="linearGradient4002"
       xlink:href="#linearGradient3637-1"
       gradientUnits="userSpaceOnUse" />
    <linearGradient
       id="linearGradient3637-1">
      <stop
         id="stop3639-49"
         style="stop-color:#f0f0f0;stop-opacity:1"
         offset="0" />
      <stop
         id="stop3641-87"
         style="stop-color:#aaaaaa;stop-opacity:1"
         offset="1" />
    </linearGradient>
    <linearGradient
       x1="45"
       y1="24"
       x2="45"
       y2="76"
       id="linearGradient3100"
       xlink:href="#linearGradient3637-32"
       gradientUnits="userSpaceOnUse"
       gradientTransform="translate(8,2)" />
    <linearGradient
       id="linearGradient3637-32">
      <stop
         id="stop3639-7"
         style="stop-color:#f0f0f0;stop-opacity:1"
         offset="0" />
      <stop
         id="stop3641-88"
         style="stop-color:#aaaaaa;stop-opacity:1"
         offset="1" />
    </linearGradient>
    <linearGradient
       x1="45"
       y1="24"
       x2="45"
       y2="76"
       id="linearGradient3895"
       xlink:href="#linearGradient3637-4"
       gradientUnits="userSpaceOnUse"
       gradientTransform="translate(4,-2)" />
    <linearGradient
       id="linearGradient3637-4">
      <stop
         id="stop3639-40"
         style="stop-color:#f0f0f0;stop-opacity:1"
         offset="0" />
      <stop
         id="stop3641-7"
         style="stop-color:#aaaaaa;stop-opacity:1"
         offset="1" />
    </linearGradient>
    <linearGradient
       x1="46.069901"
       y1="0.92127591"
       x2="46.069901"
       y2="17.478098"
       id="linearGradient3916"
       xlink:href="#linearGradient3637-34"
       gradientUnits="userSpaceOnUse"
       gradientTransform="matrix(-2.669076,0,0,3.1691493,171.99415,18.59292)" />
    <linearGradient
       id="linearGradient3637-34">
      <stop
         id="stop3639-48"
         style="stop-color:#f0f0f0;stop-opacity:1"
         offset="0" />
      <stop
         id="stop3641-2"
         style="stop-color:#aaaaaa;stop-opacity:1"
         offset="1" />
    </linearGradient>
    <linearGradient
       x1="10.710332"
       y1="1.9963325"
       x2="10.710332"
       y2="18.974037"
       id="linearGradient3018-7"
       xlink:href="#linearGradient3637-9"
       gradientUnits="userSpaceOnUse"
       gradientTransform="matrix(2.819164,0,0,2.819164,15.399593,18.515788)" />
    <linearGradient
       id="linearGradient3637-9">
      <stop
         id="stop3639-52"
         style="stop-color:#f0f0f0;stop-opacity:1"
         offset="0" />
      <stop
         id="stop3641-01"
         style="stop-color:#aaaaaa;stop-opacity:1"
         offset="1" />
    </linearGradient>
    <linearGradient
       x1="10.710332"
       y1="1.9963325"
       x2="10.710332"
       y2="18.974037"
       id="linearGradient3018-5"
       xlink:href="#linearGradient3637-89"
       gradientUnits="userSpaceOnUse"
       gradientTransform="matrix(2.819164,0,0,2.819164,15.399593,18.515788)" />
    <linearGradient
       id="linearGradient3637-89">
      <stop
         id="stop3639-2"
         style="stop-color:#f0f0f0;stop-opacity:1"
         offset="0" />
      <stop
         id="stop3641-5"
         style="stop-color:#aaaaaa;stop-opacity:1"
         offset="1" />
    </linearGradient>
    <linearGradient
       x1="48"
       y1="76"
       x2="48"
       y2="20"
       id="linearGradient3765"
       xlink:href="#linearGradient4081-03"
       gradientUnits="userSpaceOnUse" />
    <linearGradient
       id="linearGradient4081-03">
      <stop
         id="stop4083-1"
         style="stop-color:#aaaaaa;stop-opacity:1"
         offset="0" />
      <stop
         id="stop4085-1"
         style="stop-color:#f0f0f0;stop-opacity:1"
         offset="1" />
    </linearGradient>
    <linearGradient
       x1="6.7846189"
       y1="10.091278"
       x2="6.7846189"
       y2="21.579315"
       id="linearGradient3015"
       xlink:href="#linearGradient3637-11"
       gradientUnits="userSpaceOnUse"
       gradientTransform="matrix(4.3841943,0,0,2.1095676,13.822175,18.473172)" />
    <linearGradient
       id="linearGradient3637-11">
      <stop
         id="stop3639-6"
         style="stop-color:#f0f0f0;stop-opacity:1"
         offset="0" />
      <stop
         id="stop3641-48"
         style="stop-color:#aaaaaa;stop-opacity:1"
         offset="1" />
    </linearGradient>
  </defs>
  <sodipodi:namedview
     id="base"
     pagecolor="#ffffff"
     bordercolor="#666666"
     borderopacity="1.0"
     inkscape:pageopacity="0.0"
     inkscape:pageshadow="2"
     inkscape:zoom="3.959798"
     inkscape:cx="81.938797"
     inkscape:cy="63.817216"
     inkscape:document-units="px"
     inkscape:current-layer="layer1"
     showgrid="false"
     inkscape:window-width="1280"
     inkscape:window-height="750"
     inkscape:window-x="0"
     inkscape:window-y="22"
     inkscape:window-maximized="1"
     showguides="true"
     inkscape:guide-bbox="true">
    <sodipodi:guide
       orientation="0,1"
       position="-24.748737,0"
       id="guide11064" />
    <sodipodi:guide
       orientation="0,1"
       position="-23.233509,96"
       id="guide11066" />
    <sodipodi:guide
       orientation="1,0"
       position="0,54.800776"
       id="guide11068" />
    <sodipodi:guide
       orientation="1,0"
       position="96,51.012704"
       id="guide11070" />
    <sodipodi:guide
       orientation="0,1"
       position="-18.94036,48"
       id="guide11072" />
    <sodipodi:guide
       orientation="1,0"
       position="48,79.296975"
       id="guide11074" />
    <sodipodi:guide
       orientation="1,0"
       position="2,75.508903"
       id="guide11076" />
    <sodipodi:guide
       orientation="0,1"
       position="-77.27667,2"
       id="guide11078" />
    <sodipodi:guide
       orientation="1,0"
       position="94,77.781746"
       id="guide11080" />
    <sodipodi:guide
       orientation="0,1"
       position="-65.912454,94"
       id="guide11082" />
  </sodipodi:namedview>
  <metadata
     id="metadata11042">
    <rdf:RDF>
      <cc:Work
         rdf:about="">
        <dc:format>image/svg+xml</dc:format>
        <dc:type
           rdf:resource="http://purl.org/dc/dcmitype/StillImage" />
        <dc:title></dc:title>
      </cc:Work>
    </rdf:RDF>
  </metadata>
  <g
     inkscape:label="Layer 1"
     inkscape:groupmode="layer"
     id="layer1"
     transform="translate(0,-956.36218)">
    <rect
       x="2"
       y="958.36218"
       width="92"
       height="92"
       style="fill:#000000;fill-opacity:1;opacity:0.6"
       id="rect3867"
       rx="25"
       ry="25" />
    <g
       transform="translate(0,956.36218)"
       style="display:inline"
       id="g3070">
      <path
         style="opacity:0.3;fill:#000000;fill-opacity:1;stroke:none;display:inline"
         id="path3884"
         inkscape:connector-curvature="0"
         d="m 68.802678,64.027361 4.223923,-23.130641 -23.214686,4.208632 6.195093,6.172664 c -5.66404,5.301056 -14.56907,5.191292 -20.094615,-0.314245 -1.602617,-1.596817 -2.756778,-3.474765 -3.446725,-5.476835 l -9.439067,2.513954 c 1.116701,3.651964 3.119155,7.103264 6.014871,9.988492 9.295989,9.262325 24.434595,9.238634 33.926557,0.224469 l 5.834649,5.813525 z" />
      <path
         style="fill:url(#linearGradient3015);fill-opacity:1;stroke:none;display:inline"
         id="Symbol"
         inkscape:connector-curvature="0"
         d="m 68.802678,63.027361 4.223923,-23.130641 -23.214686,4.208632 6.195093,6.172664 c -5.66404,5.301056 -14.56907,5.191292 -20.094615,-0.314245 -1.602617,-1.596817 -2.756778,-3.474765 -3.446725,-5.476835 l -9.439067,2.513954 c 1.116701,3.651964 3.119155,7.103264 6.014871,9.988492 9.295989,9.262325 24.434595,9.238634 33.926557,0.224469 l 5.834649,5.813525 z" />
      <path
         style="opacity:0.75;fill:#ffffff;fill-opacity:1;stroke:none;display:inline"
         id="path3866"
         inkscape:connector-curvature="0"
         d="m 73.03125,39.90625 -23.21875,4.1875 0.84375,0.84375 22.1875,-4 0.1875,-1.03125 z M 32.46875,44.5 23.03125,47 c 0.09211,0.301232 0.208332,0.607954 0.3125,0.90625 L 32.46875,45.5 c 0.689947,2.00207 1.834883,3.871933 3.4375,5.46875 5.525545,5.505537 14.42971,5.613556 20.09375,0.3125 L 55.46875,50.75 C 49.791755,55.565757 41.261966,55.305073 35.90625,49.96875 34.303633,48.371933 33.158697,46.50207 32.46875,44.5 z" />
      <path
         style="opacity:0.15;fill:#000000;fill-opacity:1;stroke:none;display:inline"
         id="path3875"
         inkscape:connector-curvature="0"
         d="m 73.03125,39.90625 -0.1875,0.03125 -4.03125,22.09375 -5.84375,-5.8125 C 53.476788,65.232915 38.327239,65.262325 29.03125,56 26.374387,53.35276 24.502457,50.224328 23.34375,46.90625 L 23.03125,47 c 1.116701,3.651964 3.104284,7.114772 6,10 9.295989,9.262325 24.445538,9.232915 33.9375,0.21875 l 5.84375,5.8125 4.21875,-23.125 z M 50.65625,43.9375 49.8125,44.09375 55.46875,49.75 C 55.648767,49.597293 55.825914,49.44418 56,49.28125 L 50.65625,43.9375 z" />
    </g>
    <rect
       ry="25"
       rx="25"
       id="rect3003"
       style="opacity:0.15;fill:#ffffff;fill-opacity:1"
       height="92"
       width="92"
       y="958.36218"
       x="-96"
       clip-path="url(#clipPath3009)"
       transform="translate(98,-2.6171874e-6)" />
  </g>
</svg>

<?xml version="1.0" encoding="UTF-8" standalone="no"?>
<!-- Created with Inkscape (http://www.inkscape.org/) -->
<svg id="svg11037" xmlns:rdf="http://www.w3.org/1999/02/22-rdf-syntax-ns#" xmlns="http://www.w3.org/2000/svg" height="96" width="96" version="1.1" xmlns:cc="http://creativecommons.org/ns#" xmlns:xlink="http://www.w3.org/1999/xlink" xmlns:dc="http://purl.org/dc/elements/1.1/">
 <defs id="defs11039">
  <clipPath id="clipPath3009" clipPathUnits="userSpaceOnUse">
   <path id="path3011" style="opacity:.15;fill:#fff" d="m-2 956.36h-96v33.562l96 25.687v-59.25z"/>
  </clipPath>
  <linearGradient id="linearGradient3015" y2="21.579" gradientUnits="userSpaceOnUse" x2="6.7846" gradientTransform="matrix(4.3842 0 0 2.1096 13.822 18.473)" y1="10.091" x1="6.7846">
   <stop id="stop3639-6" style="stop-color:#f0f0f0" offset="0"/>
   <stop id="stop3641-48" style="stop-color:#aaa" offset="1"/>
  </linearGradient>
 </defs>
 <metadata id="metadata11042">
  <rdf:RDF>
   <cc:Work rdf:about="">
    <dc:format>image/svg+xml</dc:format>
    <dc:type rdf:resource="http://purl.org/dc/dcmitype/StillImage"/>
    <dc:title/>
   </cc:Work>
  </rdf:RDF>
 </metadata>
 <g id="layer1" transform="translate(0 -956.36)">
  <rect id="rect3867" style="opacity:.6" rx="25" ry="25" height="92" width="92" y="958.36" x="2"/>
  <g id="g3070" transform="translate(0 956.36)">
   <path id="path3884" d="m68.803 64.027 4.2239-23.131-23.215 4.2086 6.1951 6.1727c-5.664 5.3011-14.569 5.1913-20.095-0.31424-1.6026-1.5968-2.7568-3.4748-3.4467-5.4768l-9.4391 2.514c1.1167 3.652 3.1192 7.1033 6.0149 9.9885 9.296 9.2623 24.435 9.2386 33.927 0.22447l5.8346 5.8135z" style="opacity:.3"/>
   <path id="Symbol" d="m68.803 63.027 4.2239-23.131-23.215 4.2086 6.1951 6.1727c-5.664 5.3011-14.569 5.1913-20.095-0.31424-1.6026-1.5968-2.7568-3.4748-3.4467-5.4768l-9.4391 2.514c1.1167 3.652 3.1192 7.1033 6.0149 9.9885 9.296 9.2623 24.435 9.2386 33.927 0.22447l5.8346 5.8135z" style="fill:url(#linearGradient3015)"/>
   <path id="path3866" d="m73.031 39.906-23.219 4.1875 0.84375 0.84375 22.188-4 0.1875-1.0312zm-40.562 4.594-9.438 2.5c0.09211 0.30123 0.20833 0.60795 0.3125 0.90625l9.125-2.406c0.68995 2.0021 1.8349 3.8719 3.4375 5.4688 5.5255 5.5055 14.43 5.6136 20.094 0.3125l-0.532-0.531c-5.677 4.816-14.207 4.555-19.563-0.781-1.602-1.597-2.747-3.467-3.437-5.469z" style="opacity:.75;fill:#fff"/>
   <path id="path3875" d="m73.031 39.906-0.1875 0.03125-4.0312 22.094-5.8438-5.8125c-9.492 9.015-24.642 9.044-33.938-0.218-2.657-2.647-4.529-5.776-5.687-9.094l-0.313 0.094c1.1167 3.652 3.1043 7.1148 6 10 9.296 9.2623 24.446 9.2329 33.938 0.21875l5.8438 5.8125 4.2188-23.125zm-22.375 4.032-0.844 0.156 5.657 5.656c0.18-0.153 0.357-0.306 0.531-0.469l-5.344-5.343z" style="opacity:.15"/>
  </g>
  <rect id="rect3003" style="opacity:.15;fill:#fff" transform="translate(98 -.0000026172)" clip-path="url(#clipPath3009)" rx="25" ry="25" height="92" width="92" y="958.36" x="-96"/>
 </g>
</svg>
